src/assets/svg/merchant-3.svg

<svg width="44" height="46" viewBox="0 0 44 46" fill="none" xmlns="http://www.w3.org/2000/svg">
<path d="M21.5625 8.625C23.3444 8.625 25.0215 8.96191 26.5938 9.63574C28.166 10.3096 29.5361 11.238 30.7041 12.4209C31.8721 13.6038 32.793 14.974 33.4668 16.5312C34.1406 18.0885 34.485 19.7656 34.5 21.5625C34.5 22.5059 34.4401 23.3893 34.3203 24.2129C34.2005 25.0365 34.0133 25.8226 33.7588 26.5713C33.5042 27.32 33.1748 28.0612 32.7705 28.7949C32.3662 29.5286 31.887 30.2773 31.333 31.041C30.8988 31.64 30.5169 32.179 30.1875 32.6582C29.8581 33.1374 29.5885 33.6165 29.3789 34.0957C29.1693 34.5749 29.012 35.099 28.9072 35.668C28.8024 36.237 28.75 36.9033 28.75 37.667V41.6875C28.75 42.2865 28.6377 42.848 28.4131 43.3721C28.1885 43.8962 27.8815 44.3529 27.4922 44.7422C27.1029 45.1315 26.6462 45.4385 26.1221 45.6631C25.598 45.8877 25.0365 46 24.4375 46H18.6875C18.0885 46 17.527 45.8877 17.0029 45.6631C16.4788 45.4385 16.0221 45.1315 15.6328 44.7422C15.2435 44.3529 14.9365 43.8962 14.7119 43.3721C14.4873 42.848 14.375 42.2865 14.375 41.6875V37.6445C14.375 36.8809 14.3226 36.222 14.2178 35.668C14.113 35.1139 13.9557 34.5973 13.7461 34.1182C13.5365 33.639 13.2669 33.1523 12.9375 32.6582C12.6081 32.1641 12.2262 31.625 11.792 31.041C11.238 30.2773 10.7663 29.5361 10.377 28.8174C9.98763 28.0986 9.6582 27.3574 9.38867 26.5938C9.11914 25.8301 8.92448 25.0365 8.80469 24.2129C8.6849 23.3893 8.625 22.5059 8.625 21.5625C8.625 19.7806 8.96191 18.1035 9.63574 16.5312C10.3096 14.959 11.238 13.5889 12.4209 12.4209C13.6038 11.2529 14.974 10.332 16.5312 9.6582C18.0885 8.98438 19.7656 8.63997 21.5625 8.625ZM25.875 41.6875V40.25H17.25V41.6875C17.25 42.0768 17.3923 42.4137 17.6768 42.6982C17.9613 42.9827 18.2982 43.125 18.6875 43.125H24.4375C24.8268 43.125 25.1637 42.9827 25.4482 42.6982C25.7327 42.4137 25.875 42.0768 25.875 41.6875ZM31.625 21.5625C31.625 20.1699 31.363 18.8672 30.8389 17.6543C30.3148 16.4414 29.596 15.3708 28.6826 14.4424C27.7692 13.514 26.7061 12.7952 25.4932 12.2861C24.2803 11.777 22.9701 11.515 21.5625 11.5C20.1699 11.5 18.8672 11.762 17.6543 12.2861C16.4414 12.8102 15.3708 13.529 14.4424 14.4424C13.514 15.3558 12.7952 16.4189 12.2861 17.6318C11.777 18.8447 11.515 20.1549 11.5 21.5625C11.5 22.8952 11.6348 24.0407 11.9043 24.999C12.1738 25.9574 12.5257 26.8109 12.96 27.5596C13.3942 28.3083 13.8509 29.012 14.3301 29.6709C14.8092 30.3298 15.266 31.0186 15.7002 31.7373C16.1344 32.4561 16.4938 33.2646 16.7783 34.1631C17.0628 35.0615 17.2201 36.1322 17.25 37.375H25.875C25.89 36.1322 26.0397 35.069 26.3242 34.1855C26.6087 33.3021 26.9681 32.4935 27.4023 31.7598C27.8366 31.026 28.2933 30.3372 28.7725 29.6934C29.2516 29.0495 29.7083 28.3457 30.1426 27.582C30.5768 26.8184 30.9287 25.9574 31.1982 24.999C31.4678 24.0407 31.61 22.8952 31.625 21.5625ZM21.5625 5.75C21.1732 5.75 20.8363 5.60775 20.5518 5.32324C20.2673 5.03874 20.125 4.70182 20.125 4.3125V1.4375C20.125 1.04818 20.2673 0.711263 20.5518 0.426758C20.8363 0.142253 21.1732 0 21.5625 0C21.9518 0 22.2887 0.142253 22.5732 0.426758C22.8577 0.711263 23 1.04818 23 1.4375V4.3125C23 4.70182 22.8577 5.03874 22.5732 5.32324C22.2887 5.60775 21.9518 5.75 21.5625 5.75ZM4.3125 20.8438H1.4375C1.04818 20.8438 0.711263 20.7015 0.426758 20.417C0.142253 20.1325 0 19.7956 0 19.4062C0 19.0169 0.142253 18.68 0.426758 18.3955C0.711263 18.111 1.04818 17.9688 1.4375 17.9688H4.3125C4.70182 17.9688 5.03874 18.111 5.32324 18.3955C5.60775 18.68 5.75 19.0169 5.75 19.4062C5.75 19.7956 5.60775 20.1325 5.32324 20.417C5.03874 20.7015 4.70182 20.8438 4.3125 20.8438ZM5.50293 26.7061C5.89225 26.7061 6.22917 26.8483 6.51367 27.1328C6.79818 27.4173 6.94043 27.7617 6.94043 28.166C6.94043 28.4655 6.85807 28.7275 6.69336 28.9521C6.52865 29.1768 6.30404 29.3564 6.01953 29.4912C5.85482 29.5661 5.63021 29.6634 5.3457 29.7832C5.0612 29.903 4.75423 30.0303 4.4248 30.165C4.09538 30.2998 3.7959 30.4121 3.52637 30.502C3.25684 30.5918 3.01725 30.6442 2.80762 30.6592C2.41829 30.6592 2.08138 30.5169 1.79688 30.2324C1.51237 29.9479 1.37012 29.6035 1.37012 29.1992C1.37012 28.8997 1.45247 28.6377 1.61719 28.4131C1.7819 28.1885 2.00651 28.0088 2.29102 27.874C2.45573 27.8141 2.68034 27.7168 2.96484 27.582C3.24935 27.4473 3.55632 27.32 3.88574 27.2002C4.21517 27.0804 4.51465 26.9681 4.78418 26.8633C5.05371 26.7585 5.29329 26.7061 5.50293 26.7061ZM8.91699 12.2188C8.91699 12.6081 8.77474 12.945 8.49023 13.2295C8.20573 13.514 7.86881 13.6562 7.47949 13.6562C7.20996 13.6562 6.96289 13.5889 6.73828 13.4541L4.29004 11.9492C4.0804 11.8145 3.91569 11.6423 3.7959 11.4326C3.67611 11.223 3.60872 10.9834 3.59375 10.7139C3.59375 10.3245 3.736 9.98763 4.02051 9.70312C4.30501 9.41862 4.64193 9.27637 5.03125 9.27637C5.27083 9.27637 5.5179 9.35124 5.77246 9.50098L8.24316 10.9834C8.4528 11.1032 8.61751 11.2754 8.7373 11.5C8.8571 11.7246 8.91699 11.9642 8.91699 12.2188ZM10.7812 3.95312C10.7812 3.5638 10.9235 3.22689 11.208 2.94238C11.4925 2.65788 11.8294 2.51562 12.2188 2.51562C12.4733 2.51562 12.7129 2.58301 12.9375 2.71777C13.1621 2.85254 13.3418 3.03223 13.4766 3.25684L14.8691 5.77246C14.9889 5.9821 15.0488 6.20671 15.0488 6.44629C15.0488 6.85059 14.9066 7.19499 14.6221 7.47949C14.3376 7.764 14.0007 7.90625 13.6113 7.90625C13.3568 7.90625 13.1172 7.83887 12.8926 7.7041C12.668 7.56934 12.4883 7.38965 12.3535 7.16504L10.9609 4.64941C10.8411 4.43978 10.7812 4.20768 10.7812 3.95312ZM41.6875 17.9688C42.0768 17.9688 42.4137 18.111 42.6982 18.3955C42.9827 18.68 43.125 19.0169 43.125 19.4062C43.125 19.7956 42.9827 20.1325 42.6982 20.417C42.4137 20.7015 42.0768 20.8438 41.6875 20.8438H38.8125C38.4232 20.8438 38.0863 20.7015 37.8018 20.417C37.5173 20.1325 37.375 19.7956 37.375 19.4062C37.375 19.0169 37.5173 18.68 37.8018 18.3955C38.0863 18.111 38.4232 17.9688 38.8125 17.9688H41.6875ZM41.7324 29.2217C41.7324 29.611 41.5902 29.9479 41.3057 30.2324C41.0212 30.5169 40.6842 30.6592 40.2949 30.6592C40.1302 30.6592 39.9056 30.6143 39.6211 30.5244C39.3366 30.4346 39.0296 30.3148 38.7002 30.165C38.3708 30.0153 38.0713 29.888 37.8018 29.7832C37.5322 29.6784 37.3001 29.5736 37.1055 29.4688C36.8359 29.349 36.6188 29.1693 36.4541 28.9297C36.2894 28.6901 36.1995 28.4206 36.1846 28.1211C36.1846 27.7168 36.3268 27.3799 36.6113 27.1104C36.8958 26.8408 37.2402 26.6986 37.6445 26.6836C37.8242 26.6836 38.0563 26.736 38.3408 26.8408C38.6253 26.9456 38.9248 27.0654 39.2393 27.2002C39.5537 27.335 39.8532 27.4697 40.1377 27.6045C40.4222 27.7393 40.6543 27.8366 40.834 27.8965C41.1035 28.0163 41.3206 28.1885 41.4854 28.4131C41.6501 28.6377 41.7324 28.9072 41.7324 29.2217ZM35.6455 13.6562C35.2562 13.6562 34.9193 13.514 34.6348 13.2295C34.3503 12.945 34.208 12.6081 34.208 12.2188C34.208 11.9642 34.2679 11.7246 34.3877 11.5C34.5075 11.2754 34.6722 11.1032 34.8818 10.9834L37.3525 9.50098C37.6071 9.35124 37.8542 9.27637 38.0938 9.27637C38.4831 9.27637 38.82 9.41862 39.1045 9.70312C39.389 9.98763 39.5312 10.3245 39.5312 10.7139C39.5312 10.9684 39.4714 11.2005 39.3516 11.4102C39.2318 11.6198 39.0596 11.7995 38.835 11.9492L36.3867 13.4541C36.1621 13.5889 35.915 13.6562 35.6455 13.6562ZM28.0762 6.44629C28.0762 6.20671 28.1361 5.9821 28.2559 5.77246L29.6484 3.25684C29.7682 3.03223 29.9404 2.85254 30.165 2.71777C30.3896 2.58301 30.6367 2.51562 30.9062 2.51562C31.2956 2.51562 31.6325 2.65788 31.917 2.94238C32.2015 3.22689 32.3438 3.5638 32.3438 3.95312C32.3438 4.20768 32.2839 4.43978 32.1641 4.64941L30.7715 7.16504C30.6517 7.38965 30.4795 7.56934 30.2549 7.7041C30.0303 7.83887 29.7832 7.90625 29.5137 7.90625C29.1243 7.90625 28.7874 7.764 28.5029 7.47949C28.2184 7.19499 28.0762 6.85059 28.0762 6.44629Z" fill="#00C700"/>
</svg>

<svg xmlns="http://www.w3.org/2000/svg" width="44" height="46" fill="none"><path fill="#00C700" d="M21.563 8.625q2.672 0 5.03 1.01a12.8 12.8 0 0 1 4.111 2.786 13.3 13.3 0 0 1 2.763 4.11q1.01 2.337 1.033 5.032 0 1.414-.18 2.65t-.561 2.358-.989 2.224a22 22 0 0 1-1.437 2.246 80 80 0 0 0-1.145 1.617q-.495.72-.81 1.438a7 7 0 0 0-.47 1.572 11 11 0 0 0-.158 1.999v4.02q0 .9-.337 1.685t-.92 1.37q-.585.585-1.37.921a4.2 4.2 0 0 1-1.686.337h-5.75q-.898 0-1.684-.337a4.3 4.3 0 0 1-1.37-.92 4.3 4.3 0 0 1-.921-1.37 4.2 4.2 0 0 1-.337-1.685v-4.044q0-1.145-.157-1.976a7.2 7.2 0 0 0-.472-1.55q-.315-.719-.809-1.46a39 39 0 0 0-1.145-1.617 20 20 0 0 1-1.415-2.224 15.5 15.5 0 0 1-.988-2.223 12.6 12.6 0 0 1-.584-2.381q-.18-1.236-.18-2.65 0-2.674 1.01-5.032a12.8 12.8 0 0 1 2.786-4.11 13.3 13.3 0 0 1 4.11-2.763q2.337-1.01 5.032-1.033m4.312 33.063V40.25H17.25v1.438q0 .584.427 1.01.426.427 1.01.427h5.75q.585 0 1.011-.427.427-.426.427-1.01m5.75-20.126q0-2.088-.786-3.908a10.5 10.5 0 0 0-2.156-3.212 9.7 9.7 0 0 0-3.19-2.156q-1.82-.763-3.93-.786-2.09 0-3.909.786a10.5 10.5 0 0 0-3.212 2.156 9.7 9.7 0 0 0-2.156 3.19q-.763 1.82-.786 3.93 0 2 .404 3.437.405 1.438 1.056 2.56.65 1.124 1.37 2.112.72.989 1.37 2.066.651 1.08 1.078 2.426.427 1.349.472 3.212h8.625q.023-1.864.45-3.19.426-1.325 1.077-2.425.652-1.101 1.37-2.067.72-.966 1.37-2.111.652-1.146 1.056-2.583.405-1.437.427-3.436M21.563 5.75q-.585 0-1.011-.427a1.38 1.38 0 0 1-.427-1.01V1.438q0-.585.427-1.011A1.38 1.38 0 0 1 21.562 0q.585 0 1.011.427.427.426.427 1.01v2.875q0 .585-.427 1.011a1.38 1.38 0 0 1-1.01.427M4.313 20.844H1.438q-.585 0-1.011-.427A1.38 1.38 0 0 1 0 19.407q0-.585.427-1.012a1.38 1.38 0 0 1 1.01-.426h2.875q.585 0 1.011.426.427.428.427 1.011 0 .585-.427 1.011a1.38 1.38 0 0 1-1.01.427m1.19 5.862q.585 0 1.01.427.427.427.427 1.033 0 .45-.247.786-.246.337-.673.54-.248.111-.674.291-.428.18-.921.382-.495.202-.899.337-.405.135-.718.157-.585 0-1.011-.427A1.4 1.4 0 0 1 1.37 29.2q0-.45.247-.786.248-.336.674-.539.248-.09.674-.292t.92-.382.9-.337q.403-.156.718-.157M8.917 12.22q0 .585-.427 1.01a1.38 1.38 0 0 1-1.01.427q-.405 0-.742-.202L4.29 11.95a1.5 1.5 0 0 1-.494-.516q-.18-.315-.202-.72 0-.582.427-1.01a1.38 1.38 0 0 1 1.01-.427q.36 0 .741.225l2.471 1.482q.315.18.494.517.18.337.18.719m1.864-8.266q0-.584.427-1.01a1.38 1.38 0 0 1 1.01-.427q.383 0 .72.202t.539.539l1.392 2.515q.18.315.18.674 0 .607-.427 1.033a1.38 1.38 0 0 1-1.01.427q-.383 0-.72-.202a1.55 1.55 0 0 1-.538-.539L10.96 4.649q-.18-.314-.18-.696M41.688 17.97q.584 0 1.01.426.427.428.427 1.011 0 .585-.427 1.011a1.38 1.38 0 0 1-1.01.427h-2.876q-.584 0-1.01-.427a1.38 1.38 0 0 1-.427-1.01q0-.585.427-1.012a1.38 1.38 0 0 1 1.01-.426zm.044 11.253q0 .584-.426 1.01a1.38 1.38 0 0 1-1.011.427q-.248 0-.674-.135a8 8 0 0 1-.92-.359q-.495-.225-.9-.382a6 6 0 0 1-.696-.314q-.405-.18-.65-.54a1.53 1.53 0 0 1-.27-.808q0-.606.426-1.01.428-.405 1.034-.427.27 0 .696.157.427.157.898.36.472.201.899.404.426.202.696.291.405.18.651.517.247.337.247.809m-6.087-15.566q-.584 0-1.01-.427a1.38 1.38 0 0 1-.427-1.01q0-.382.18-.719t.494-.517l2.47-1.482a1.46 1.46 0 0 1 .742-.225q.585 0 1.01.427.427.428.427 1.01 0 .383-.18.697-.18.315-.516.54l-2.448 1.504a1.4 1.4 0 0 1-.742.202m-7.569-7.21q0-.36.18-.674l1.392-2.515q.18-.337.517-.54.338-.201.741-.201.585 0 1.011.426.427.428.427 1.011 0 .383-.18.696l-1.393 2.516q-.18.337-.516.54a1.4 1.4 0 0 1-.741.201q-.585 0-1.011-.427a1.4 1.4 0 0 1-.427-1.033"/></svg>
